X: 74
T: Pollonesse #74
M: 3/4
L: 1/16
K: G
Q:120
G2GA BAGF G4|B4 G4 D4|GFGA BAGF G4|B2B2 G2G2 D2D2|
DEFG A2AG B2BG|c2cA cBAG F2D2|DEFG A2AG B2BG|c2cA cBAG F2D2|
c2e2 B2d2 A2c2|BAGF G4 G,4:|

